;START_OF_HEADER
;HEADER_VERSION:0.1
;FLAVOR:Griffin
;GENERATOR.NAME:Cura_SteamEngine
;GENERATOR.VERSION:4.13.1
;GENERATOR.BUILD_DATE:2022-01-28
;TARGET_MACHINE.NAME:Ultimaker 3
;EXTRUDER_TRAIN.0.INITIAL_TEMPERATURE:205
;EXTRUDER_TRAIN.0.MATERIAL.VOLUME_USED:22417
;EXTRUDER_TRAIN.0.MATERIAL.GUID:506c9f0d-e3aa-4bd4-b2d2-23e2425b1aa9
;EXTRUDER_TRAIN.0.NOZZLE.DIAMETER:0.4
;EXTRUDER_TRAIN.0.NOZZLE.NAME:AA 0.4
;BUILD_PLATE.TYPE:glass
;BUILD_PLATE.INITIAL_TEMPERATURE:60
;PRINT.TIME:21162
;PRINT.GROUPS:1
;PRINT.SIZE.MIN.X:9
;PRINT.SIZE.MIN.Y:6
;PRINT.SIZE.MIN.Z:0.27
;PRINT.SIZE.MAX.X:205.262
;PRINT.SIZE.MAX.Y:205.469
;PRINT.SIZE.MAX.Z:52.47
;END_OF_HEADER
;Generated with Cura_SteamEngine 4.13.1
T0
M82 ;absolute extrusion mode

G92 E0
M109 S205
G0 F15000 X9 Y6 Z2
G280
G1 F1500 E-6.5
;LAYER_COUNT:525
;LAYER:0
M107
M204 S625
M205 X30 Y30
G1 F600 Z2.27
G0 F4285.7 X186.029 Y30.121 Z2.27
M204 S500
M205 X20 Y20
;TYPE:SKIRT
G1 F600 Z0.27
G1 F1500 E0
G1 F1200 X186.583 Y29.623 E0.01324
G1 X187.187 Y29.188 E0.02647
G1 X187.834 Y28.821 E0.0397
G1 X188.516 Y28.524 E0.05292
G1 X189.227 Y28.303 E0.06615
G1 X189.957 Y28.159 E0.07938
G1 X190.929 Y28.091 E0.0967
G1 X191.103 Y28.091 E0.09979
G1 X191.846 Y28.131 E0.11302
G1 X192.581 Y28.25 E0.12626
G1 X193.299 Y28.448 E0.1395
G1 X193.991 Y28.721 E0.15272
G1 X194.65 Y29.067 E0.16595
G1 X195.268 Y29.482 E0.17918
G1 X196.003 Y30.121 E0.1965
G1 X203.232 Y37.35 E0.37823
G1 X203.73 Y37.904 E0.39147
G1 X204.165 Y38.508 E0.4047
G1 X204.532 Y39.155 E0.41792
G1 X204.829 Y39.837 E0.43114
G1 X205.05 Y40.548 E0.44438
G1 X205.194 Y41.278 E0.45761
G1 X205.262 Y42.25 E0.47493
G1 X205.262 Y42.424 E0.47802
G1 X205.222 Y43.167 E0.49125
G1 X205.103 Y43.902 E0.50448
G1 X204.905 Y44.62 E0.51772
G1 X204.632 Y45.312 E0.53094
G1 X204.286 Y45.971 E0.54418
G1 X203.871 Y46.589 E0.55741
G1 X203.232 Y47.324 E0.57472
G1 X47.117 Y203.439 E4.4993
G1 X46.563 Y203.937 E4.51254
G1 X45.959 Y204.372 E4.52577
G1 X45.312 Y204.739 E4.539
G1 X44.63 Y205.036 E4.55222
G1 X43.919 Y205.257 E4.56545
G1 X43.189 Y205.401 E4.57868
G1 X42.217 Y205.469 E4.596
G1 X42.043 Y205.469 E4.59909
G1 X41.3 Y205.429 E4.61232
G1 X40.565 Y205.31 E4.62556
G1 X39.847 Y205.112 E4.6388
G1 X39.155 Y204.839 E4.65202
G1 X38.496 Y204.493 E4.66525
G1 X37.878 Y204.078 E4.67848
G1 X37.143 Y203.439 E4.69579
G1 X29.914 Y196.21 E4.87752
G1 X29.416 Y195.656 E4.89077
G1 X28.981 Y195.052 E4.904
G1 X28.614 Y194.405 E4.91722
G1 X28.317 Y193.723 E4.93044
G1 X28.096 Y193.012 E4.94368
G1 X27.952 Y192.282 E4.95691
G1 X27.884 Y191.31 E4.97423
G1 X27.884 Y191.136 E4.97732
G1 X27.924 Y190.393 E4.99055
G1 X28.043 Y189.658 E5.00378
G1 X28.241 Y188.94 E5.01702
G1 X28.514 Y188.248 E5.03024
G1 X28.86 Y187.589 E5.04347
G1 X29.275 Y186.971 E5.05671
G1 X29.914 Y186.236 E5.07402
G1 X186.029 Y30.121 E8.9986
M204 S625
M205 X30 Y30
G0 F4285.7 X186.326 Y30.418
M204 S500
M205 X20 Y20
G1 F1200 X186.863 Y29.937 E9.01141
G1 X187.451 Y29.518 E9.02425
G1 X188.081 Y29.167 E9.03707
G1 X188.746 Y28.888 E9.04989
G1 X189.438 Y28.684 E9.06271
G1 X190.148 Y28.558 E9.07553
G1 X190.929 Y28.511 E9.08944
G1 X191.103 Y28.511 E9.09253
G1 X191.823 Y28.551 E9.10535
G1 X192.535 Y28.67 E9.11818
G1 X193.229 Y28.868 E9.13101
G1 X193.896 Y29.141 E9.14382
G1 X194.53 Y29.486 E9.15665
G1 X195.121 Y29.899 E9.16947
G1 X195.706 Y30.418 E9.18337
G1 X202.935 Y37.647 E9.3651
G1 X203.416 Y38.184 E9.37792
G1 X203.835 Y38.772 E9.39075
G1 X204.186 Y39.402 E9.40357
G1 X204.465 Y40.067 E9.41639
G1 X204.669 Y40.759 E9.42921
G1 X204.795 Y41.469 E9.44203
G1 X204.842 Y42.25 E9.45594
G1 X204.842 Y42.424 E9.45903
G1 X204.802 Y43.144 E9.47185
G1 X204.683 Y43.856 E9.48468
G1 X204.485 Y44.55 E9.49751
G1 X204.212 Y45.217 E9.51032
G1 X203.867 Y45.851 E9.52315
G1 X203.454 Y46.442 E9.53597
G1 X202.935 Y47.027 E9.54987
G1 X46.82 Y203.142 E13.47445
G1 X46.283 Y203.623 E13.48727
G1 X45.695 Y204.042 E13.5001
G1 X45.065 Y204.393 E13.51292
G1 X44.4 Y204.672 E13.52574
G1 X43.708 Y204.876 E13.53856
G1 X42.998 Y205.002 E13.55138
G1 X42.217 Y205.049 E13.56529
G1 X42.043 Y205.049 E13.56838
G1 X41.323 Y205.009 E13.5812
G1 X40.611 Y204.89 E13.59403
G1 X39.917 Y204.692 E13.60686
G1 X39.25 Y204.419 E13.61967
G1 X38.616 Y204.074 E13.6325
G1 X38.025 Y203.661 E13.64532
G1 X37.44 Y203.142 E13.65922
G1 X30.211 Y195.913 E13.84095
G1 X29.73 Y195.376 E13.85377
G1 X29.311 Y194.788 E13.8666
G1 X28.96 Y194.158 E13.87942
G1 X28.681 Y193.493 E13.89224
G1 X28.477 Y192.801 E13.90507
G1 X28.351 Y192.091 E13.91788
G1 X28.304 Y191.31 E13.93179
G1 X28.304 Y191.136 E13.93488
G1 X28.344 Y190.416 E13.9477
G1 X28.463 Y189.704 E13.96054
G1 X28.661 Y189.01 E13.97336
G1 X28.934 Y188.343 E13.98618
G1 X29.279 Y187.709 E13.99901
G1 X29.692 Y187.118 E14.01182
G1 X30.211 Y186.533 E14.02572
G1 X186.326 Y30.418 E17.9503
M204 S625
M205 X30 Y30
G0 F4285.7 X186.623 Y30.715
M204 S500
M205 X20 Y20
G1 F1200 X187.144 Y30.25 E17.96272
G1 X187.714 Y29.849 E17.9751
G1 X188.327 Y29.515 E17.98751
G1 X188.974 Y29.253 E17.99992
G1 X189.646 Y29.068 E18.01231
G1 X190.335 Y28.96 E18.02471
G1 X190.929 Y28.931 E18.03528
G1 X191.103 Y28.931 E18.03837
G1 X191.8 Y28.971 E18.05078
G1 X192.487 Y29.09 E18.06318
G1 X193.156 Y29.288 E18.07558
G1 X193.799 Y29.56 E18.08799
G1 X194.405 Y29.904 E18.10038
G1 X194.969 Y30.316 E18.11279
G1 X195.409 Y30.715 E18.12335
G1 X202.638 Y37.944 E18.30508
G1 X203.103 Y38.465 E18.3175
G1 X203.504 Y39.035 E18.32988
G1 X203.838 Y39.648 E18.34229
G1 X204.1 Y40.295 E18.3547
G1 X204.285 Y40.967 E18.36709
G1 X204.393 Y41.656 E18.37949
G1 X204.422 Y42.25 E18.39006
G1 X204.422 Y42.424 E18.39315
G1 X204.382 Y43.121 E18.40556
G1 X204.263 Y43.808 E18.41796
G1 X204.065 Y44.477 E18.43036
G1 X203.793 Y45.12 E18.44277
G1 X203.449 Y45.726 E18.45516
G1 X203.037 Y46.29 E18.46757
G1 X202.638 Y46.73 E18.47813
G1 X46.523 Y202.845 E22.40271
G1 X46.002 Y203.31 E22.41512
G1 X45.432 Y203.711 E22.42751
G1 X44.819 Y204.045 E22.43992
G1 X44.172 Y204.307 E22.45233
G1 X43.5 Y204.492 E22.46472
G1 X42.811 Y204.6 E22.47712
G1 X42.217 Y204.629 E22.48769
G1 X42.043 Y204.629 E22.49078
G1 X41.346 Y204.589 E22.50319
G1 X40.659 Y204.47 E22.51558
G1 X39.99 Y204.272 E22.52799
G1 X39.347 Y204 E22.5404
G1 X38.741 Y203.656 E22.55278
G1 X38.177 Y203.244 E22.5652
G1 X37.737 Y202.845 E22.57576
G1 X30.508 Y195.616 E22.75749
G1 X30.043 Y195.095 E22.7699
G1 X29.642 Y194.525 E22.78229
G1 X29.308 Y193.912 E22.7947
G1 X29.046 Y193.265 E22.80711
G1 X28.861 Y192.593 E22.8195
G1 X28.753 Y191.904 E22.83189
G1 X28.724 Y191.31 E22.84247
G1 X28.724 Y191.136 E22.84556
G1 X28.764 Y190.439 E22.85797
G1 X28.883 Y189.752 E22.87036
G1 X29.081 Y189.083 E22.88277
G1 X29.353 Y188.44 E22.89518
G1 X29.697 Y187.834 E22.90756
G1 X30.109 Y187.27 E22.91998
G1 X30.508 Y186.83 E22.93054
G1 X186.623 Y30.715 E26.85512
M204 S625
M205 X30 Y30
G0 F4285.7 X186.92 Y31.012
M204 S500
M205 X20 Y20
G1 F1200 X187.423 Y30.565 E26.86708
G1 X187.976 Y30.181 E26.87905
G1 X188.571 Y29.865 E26.89102
G1 X189.198 Y29.622 E26.90297
G1 X189.85 Y29.455 E26.91494
G1 X190.518 Y29.366 E26.92692
G1 X191.103 Y29.351 E26.93732
G1 X191.775 Y29.391 E26.94929
G1 X192.438 Y29.51 E26.96126
G1 X193.081 Y29.707 E26.97322
G1 X193.697 Y29.979 E26.98519
G1 X194.276 Y30.322 E26.99715
G1 X194.811 Y30.731 E27.00912
G1 X195.112 Y31.012 E27.01644
G1 X202.341 Y38.241 E27.19817
G1 X202.788 Y38.744 E27.21013
G1 X203.172 Y39.297 E27.2221
G1 X203.488 Y39.892 E27.23407
G1 X203.731 Y40.519 E27.24603
G1 X203.898 Y41.171 E27.25799
G1 X203.987 Y41.839 E27.26997
G1 X204.002 Y42.424 E27.28037
G1 X203.962 Y43.096 E27.29234
G1 X203.843 Y43.759 E27.30431
G1 X203.646 Y44.402 E27.31627
G1 X203.374 Y45.018 E27.32824
G1 X203.031 Y45.597 E27.3402
G1 X202.622 Y46.132 E27.35217
G1 X202.341 Y46.433 E27.35949
G1 X46.226 Y202.548 E31.28407
G1 X45.723 Y202.995 E31.29603
G1 X45.17 Y203.379 E31.308
G1 X44.575 Y203.695 E31.31998
G1 X43.948 Y203.938 E31.33193
G1 X43.296 Y204.105 E31.34389
G1 X42.628 Y204.194 E31.35587
G1 X42.043 Y204.209 E31.36627
G1 X41.371 Y204.169 E31.37824
G1 X40.708 Y204.05 E31.39021
G1 X40.065 Y203.853 E31.40217
G1 X39.449 Y203.581 E31.41414
G1 X38.87 Y203.238 E31.4261
G1 X38.335 Y202.829 E31.43807
G1 X38.034 Y202.548 E31.44539
G1 X30.805 Y195.319 E31.62712
G1 X30.358 Y194.816 E31.63908
G1 X29.974 Y194.263 E31.65105
G1 X29.658 Y193.668 E31.66303
G1 X29.415 Y193.041 E31.67498
G1 X29.248 Y192.389 E31.68694
G1 X29.159 Y191.721 E31.69892
G1 X29.144 Y191.136 E31.70933
G1 X29.184 Y190.464 E31.72129
G1 X29.303 Y189.801 E31.73327
G1 X29.5 Y189.158 E31.74522
G1 X29.772 Y188.542 E31.75719
G1 X30.115 Y187.963 E31.76915
G1 X30.524 Y187.428 E31.78112
G1 X30.805 Y187.127 E31.78844
G1 X186.92 Y31.012 E35.71302
M204 S625
M205 X30 Y30
G0 F4285.7 X187.217 Y31.309
M204 S500
M205 X20 Y20
G1 F1200 X187.702 Y30.88 E35.72453
G1 X188.237 Y30.514 E35.73606
G1 X188.812 Y30.217 E35.74756
G1 X189.42 Y29.993 E35.75908
G1 X190.051 Y29.845 E35.7706
G1 X190.929 Y29.771 E35.78626
G1 X191.103 Y29.771 E35.78936
G1 X191.75 Y29.811 E35.80088
G1 X192.386 Y29.93 E35.81238
G1 X193.003 Y30.127 E35.82389
G1 X193.592 Y30.398 E35.83542
G1 X194.142 Y30.74 E35.84693
G1 X194.815 Y31.309 E35.8626
G1 X202.044 Y38.538 E36.04433
G1 X202.473 Y39.023 E36.05584
G1 X202.839 Y39.558 E36.06736
G1 X203.136 Y40.133 E36.07886
G1 X203.36 Y40.741 E36.09038
G1 X203.508 Y41.372 E36.1019
G1 X203.582 Y42.25 E36.11757
G1 X203.582 Y42.424 E36.12066
G1 X203.542 Y43.071 E36.13218
G1 X203.423 Y43.707 E36.14368
G1 X203.226 Y44.324 E36.1552
G1 X202.955 Y44.913 E36.16672
G1 X202.613 Y45.463 E36.17823
G1 X202.044 Y46.136 E36.1939
G1 X45.929 Y202.251 E40.11848
G1 X45.444 Y202.68 E40.12999
G1 X44.909 Y203.046 E40.14151
G1 X44.334 Y203.343 E40.15302
G1 X43.726 Y203.567 E40.16453
G1 X43.095 Y203.715 E40.17606
G1 X42.217 Y203.789 E40.19172
G1 X42.043 Y203.789 E40.19481
G1 X41.396 Y203.749 E40.20633
G1 X40.76 Y203.63 E40.21784
G1 X40.143 Y203.433 E40.22935
G1 X39.554 Y203.162 E40.24087
G1 X39.004 Y202.82 E40.25239
G1 X38.331 Y202.251 E40.26805
G1 X31.102 Y195.022 E40.44978
G1 X30.673 Y194.537 E40.46129
G1 X30.307 Y194.002 E40.47282
G1 X30.01 Y193.427 E40.48432
G1 X29.786 Y192.819 E40.49584
G1 X29.638 Y192.188 E40.50736
G1 X29.564 Y191.31 E40.52302
G1 X29.564 Y191.136 E40.52611
G1 X29.604 Y190.489 E40.53764
G1 X29.723 Y189.853 E40.54914
G1 X29.92 Y189.236 E40.56065
G1 X30.191 Y188.647 E40.57218
G1 X30.533 Y188.097 E40.58369
G1 X31.102 Y187.424 E40.59936
G1 X187.217 Y31.309 E44.52394
M204 S625
M205 X30 Y30
G0 F4285.7 X187.514 Y31.606
M204 S500
M205 X20 Y20
G1 F1200 X187.98 Y31.196 E44.53497
G1 X188.496 Y30.849 E44.54602
G1 X189.052 Y30.571 E44.55707
G1 X189.638 Y30.367 E44.5681
G1 X190.246 Y30.239 E44.57915
G1 X190.929 Y30.191 E44.59132
G1 X191.103 Y30.191 E44.59441
G1 X191.723 Y30.231 E44.60545
G1 X192.333 Y30.35 E44.6165
G1 X192.922 Y30.547 E44.62754
G1 X193.481 Y30.817 E44.63858
G1 X194.001 Y31.157 E44.64962
G1 X194.518 Y31.606 E44.66179
G1 X201.747 Y38.835 E44.84352
G1 X202.157 Y39.301 E44.85456
G1 X202.504 Y39.817 E44.86561
G1 X202.782 Y40.373 E44.87666
G1 X202.986 Y40.959 E44.88769
G1 X203.114 Y41.567 E44.89874
G1 X203.162 Y42.25 E44.91091
G1 X203.162 Y42.424 E44.914
G1 X203.122 Y43.044 E44.92504
G1 X203.003 Y43.654 E44.93609
G1 X202.806 Y44.243 E44.94713
G1 X202.536 Y44.802 E44.95817
G1 X202.196 Y45.322 E44.96921
G1 X201.747 Y45.839 E44.98138
G1 X45.632 Y201.954 E48.90596
G1 X45.166 Y202.364 E48.917
G1 X44.65 Y202.711 E48.92805
G1 X44.094 Y202.989 E48.9391
G1 X43.508 Y203.193 E48.95013
G1 X42.9 Y203.321 E48.96117
G1 X42.217 Y203.369 E48.97334
G1 X42.043 Y203.369 E48.97644
G1 X41.423 Y203.329 E48.98748
G1 X40.813 Y203.21 E48.99853
G1 X40.224 Y203.013 E49.00957
G1 X39.665 Y202.743 E49.0206
G1 X39.145 Y202.403 E49.03165
G1 X38.628 Y201.954 E49.04382
G1 X31.399 Y194.725 E49.22555
G1 X30.989 Y194.259 E49.23658
G1 X30.642 Y193.743 E49.24764
G1 X30.364 Y193.187 E49.25869
G1 X30.16 Y192.601 E49.26972
G1 X30.032 Y191.993 E49.28076
G1 X29.984 Y191.31 E49.29293
G1 X29.984 Y191.136 E49.29603
G1 X30.024 Y190.516 E49.30707
G1 X30.143 Y189.906 E49.31812
G1 X30.34 Y189.317 E49.32916
G1 X30.61 Y188.758 E49.34019
G1 X30.95 Y188.238 E49.35124
G1 X31.399 Y187.721 E49.36341
G1 X187.514 Y31.606 E53.28799
M204 S625
M205 X30 Y30
G0 F4285.7 X187.811 Y31.903
M204 S500
M205 X20 Y20
G1 F1200 X188.258 Y31.512 E53.29855
G1 X188.753 Y31.185 E53.30909
G1 X189.288 Y30.928 E53.31964
G1 X189.853 Y30.744 E53.3302
G1 X190.437 Y30.639 E53.34075
G1 X191.103 Y30.611 E53.3526
G1 X191.695 Y30.651 E53.36315
G1 X192.277 Y30.77 E53.37371
G1 X192.837 Y30.966 E53.38425
G1 X193.366 Y31.236 E53.39481
G1 X193.854 Y31.574 E53.40536
G1 X194.221 Y31.903 E53.41413
G1 X201.45 Y39.132 E53.59586
G1 X201.841 Y39.579 E53.60641
G1 X202.168 Y40.074 E53.61696
G1 X202.425 Y40.609 E53.62751
G1 X202.609 Y41.174 E53.63807
G1 X202.714 Y41.758 E53.64862
G1 X202.742 Y42.424 E53.66047
G1 X202.702 Y43.016 E53.67102
G1 X202.583 Y43.598 E53.68158
G1 X202.387 Y44.158 E53.69212
G1 X202.117 Y44.687 E53.70268
G1 X201.779 Y45.175 E53.71323
G1 X201.45 Y45.542 E53.72199
G1 X45.335 Y201.657 E57.64657
G1 X44.888 Y202.048 E57.65713
G1 X44.393 Y202.375 E57.66767
G1 X43.858 Y202.632 E57.67823
G1 X43.293 Y202.816 E57.68879
G1 X42.709 Y202.921 E57.69934
G1 X42.043 Y202.949 E57.71118
G1 X41.451 Y202.909 E57.72173
G1 X40.869 Y202.79 E57.73229
G1 X40.309 Y202.594 E57.74284
G1 X39.78 Y202.324 E57.7534
G1 X39.292 Y201.986 E57.76395
G1 X38.925 Y201.657 E57.77271
G1 X31.696 Y194.428 E57.95444
G1 X31.305 Y193.981 E57.965
G1 X30.978 Y193.486 E57.97554
G1 X30.721 Y192.951 E57.98609
G1 X30.537 Y192.386 E57.99666
G1 X30.432 Y191.802 E58.0072
G1 X30.404 Y191.136 E58.01905
G1 X30.444 Y190.544 E58.0296
G1 X30.563 Y189.962 E58.04016
G1 X30.759 Y189.402 E58.05071
G1 X31.029 Y188.873 E58.06126
G1 X31.367 Y188.385 E58.07182
G1 X31.696 Y188.018 E58.08058
G1 X187.811 Y31.903 E62.00516
M204 S625
M205 X30 Y30
G0 F4285.7 X188.108 Y32.2
M204 S500
M205 X20 Y20
G1 F1200 X188.534 Y31.83 E62.01519
G1 X189.009 Y31.524 E62.02523
G1 X189.522 Y31.287 E62.03528
G1 X190.063 Y31.126 E62.04531
G1 X190.621 Y31.043 E62.05534
G1 X191.103 Y31.031 E62.06391
G1 X191.666 Y31.071 E62.07394
G1 X192.218 Y31.19 E62.08398
G1 X192.748 Y31.386 E62.09402
G1 X193.244 Y31.654 E62.10405
G1 X193.698 Y31.99 E62.11409
G1 X193.924 Y32.2 E62.11957
G1 X201.153 Y39.429 E62.3013
G1 X201.523 Y39.855 E62.31133
G1 X201.829 Y40.33 E62.32137
G1 X202.066 Y40.843 E62.33142
G1 X202.227 Y41.384 E62.34145
G1 X202.31 Y41.942 E62.35148
G1 X202.322 Y42.424 E62.36005
G1 X202.282 Y42.987 E62.37008
G1 X202.163 Y43.539 E62.38012
G1 X201.967 Y44.069 E62.39017
G1 X201.699 Y44.565 E62.40019
G1 X201.363 Y45.019 E62.41023
G1 X201.153 Y45.245 E62.41571
G1 X45.038 Y201.36 E66.34029
G1 X44.612 Y201.73 E66.35032
G1 X44.137 Y202.036 E66.36037
G1 X43.624 Y202.273 E66.37041
G1 X43.083 Y202.434 E66.38044
G1 X42.525 Y202.517 E66.39047
G1 X42.043 Y202.529 E66.39904
G1 X41.48 Y202.489 E66.40908
G1 X40.928 Y202.37 E66.41911
G1 X40.398 Y202.174 E66.42916
G1 X39.902 Y201.906 E66.43918
G1 X39.448 Y201.57 E66.44922
G1 X39.222 Y201.36 E66.4547
G1 X31.993 Y194.131 E66.63643
G1 X31.623 Y193.705 E66.64646
G1 X31.317 Y193.23 E66.65651
G1 X31.08 Y192.717 E66.66655
G1 X30.919 Y192.176 E66.67659
G1 X30.836 Y191.618 E66.68662
G1 X30.824 Y191.136 E66.69519
G1 X30.864 Y190.573 E66.70522
G1 X30.983 Y190.021 E66.71526
G1 X31.179 Y189.491 E66.7253
G1 X31.447 Y188.995 E66.73532
G1 X31.783 Y188.541 E66.74536
G1 X31.993 Y188.315 E66.75085
G1 X188.108 Y32.2 E70.67543
M204 S625
M205 X30 Y30
G0 F4285.7 X188.405 Y32.497
M204 S500
M205 X20 Y20
G1 F1200 X188.809 Y32.148 E70.68492
G1 X189.262 Y31.864 E70.69442
G1 X189.751 Y31.651 E70.7039
G1 X190.267 Y31.513 E70.7134
G1 X190.929 Y31.451 E70.72522
G1 X191.103 Y31.451 E70.72831
G1 X191.636 Y31.491 E70.73781
G1 X192.156 Y31.61 E70.74729
G1 X192.653 Y31.805 E70.75678
G1 X193.116 Y32.072 E70.76628
G1 X193.627 Y32.497 E70.7781
G1 X200.856 Y39.726 E70.95983
G1 X201.205 Y40.13 E70.96932
G1 X201.489 Y40.583 E70.97882
G1 X201.702 Y41.072 E70.9883
G1 X201.84 Y41.588 E70.9978
G1 X201.902 Y42.25 E71.00962
G1 X201.902 Y42.424 E71.01271
G1 X201.862 Y42.957 E71.02221
G1 X201.743 Y43.477 E71.03169
G1 X201.548 Y43.974 E71.04118
